X:29
T:Teetotaller, The
T:Temperance reel, The
R:reel
Z:Julie Ross
M:C|
K:G
G2GF GABc|dBge dBAc|BEED EFGA|BGAF GFED|
G2GF GABc|dBge dBAc|BEED EFGA|BGAF G4:|
|:Beed e3f|geaf gfed|Bdd^c d2de|fgaf gfed|
Beed e3f|geaf gfed|BEED EFGA|BGAF G4:|
